X: 65
T: Cock O' The North
B: begged borrowed and stolen
M:6/8
L:1/8
R: jig
Q: 3/8=100
K:Dmajor
V:1 
E|:F2 F FED|F2 A B2 A|F2 F FED|E3 EDE|
 F3 FED|F2 A B2 A|FGF EFE|D3 D2:|
 |:d2 A B2 A|d2 A B2 A|FGF FED|E3 EFA|
 d2 A B2 A|d2 A B2 A|FGF EFE|D3 D2:|
% abcbook-tune_id 62828a3a1aefae15e143d812


% abcbook-boost 0
% abcbook-tablature 
% abcbook-transpose 
% abcbook-lastupdated 1652725431096
% abcbook-soundfonts 
% abcbook-repeats 3
% abc-sessionorg_id 1218
% abc-sessionorg_setting 0
% abc-sessionorg_setting_id 24582
% abc-boost 0

